Newaita-dark/actions/22/archive-extract.svg

<svg height="22" viewBox="0 0 22 22" width="22" xmlns="http://www.w3.org/2000/svg"><g fill="#e0e0e0"><path d="m8.1875 8.8125v4.546875c0 .253906-.203125.457031-.457031.457031h-.910157c-.25 0-.453124-.203125-.453124-.457031v-4.546875c0-.25.203124-.453125.453124-.453125h.910157c.253906 0 .457031.203125.457031.453125zm0 0"/><path d="m15.464844 8.8125v4.546875c0 .253906-.207032.457031-.457032.457031h-.910156c-.25 0-.453125-.203125-.453125-.457031v-4.546875c0-.25.203125-.453125.453125-.453125h.910156c.25 0 .457032.203125.457032.453125zm0 0"/><path d="m2.730469 10.632812h2.273437v.910157h-2.273437zm0 0"/><path d="m16.828125 10.632812h2.273437v.910157h-2.273437zm0 0"/><path d="m9.550781 10.632812h2.730469v.910157h-2.730469zm0 0"/><path d="m9.550781 9.269531h-4.546875l2.273438-3.640625zm0 0"/><path d="m16.828125 9.269531h-4.546875l2.273438-3.640625zm0 0"/><path d="m3.636719 1.992188c-1.007813 0-1.816407.808593-1.816407 1.816406v14.554687c0 1.007813.808594 1.820313 1.816407 1.820313h14.554687c1.007813 0 1.820313-.8125 1.820313-1.820313v-14.554687c0-1.007813-.8125-1.816406-1.820313-1.816406zm.910156 1.816406h12.734375c.503906 0 .910156.40625.910156.910156v12.734375c0 .503906-.40625.910156-.910156.910156h-12.734375c-.503906 0-.910156-.40625-.910156-.910156v-12.734375c0-.503906.40625-.910156.910156-.910156zm0 0"/></g></svg>

<?xml version="1.0" encoding="UTF-8"?>
<svg xmlns="http://www.w3.org/2000/svg" xmlns:xlink="http://www.w3.org/1999/xlink" width="22px" height="22px" viewBox="0 0 22 22" version="1.1">
<g id="surface1">
<path style=" stroke:none;fill-rule:nonzero;fill:rgb(87.843138%,87.843138%,87.843138%);fill-opacity:1;" d="M 8.1875 8.8125 L 8.1875 13.359375 C 8.1875 13.613281 7.984375 13.816406 7.730469 13.816406 L 6.820312 13.816406 C 6.570312 13.816406 6.367188 13.613281 6.367188 13.359375 L 6.367188 8.8125 C 6.367188 8.5625 6.570312 8.359375 6.820312 8.359375 L 7.730469 8.359375 C 7.984375 8.359375 8.1875 8.5625 8.1875 8.8125 Z M 8.1875 8.8125 "/>
<path style=" stroke:none;fill-rule:nonzero;fill:rgb(87.843138%,87.843138%,87.843138%);fill-opacity:1;" d="M 15.464844 8.8125 L 15.464844 13.359375 C 15.464844 13.613281 15.257812 13.816406 15.007812 13.816406 L 14.097656 13.816406 C 13.847656 13.816406 13.644531 13.613281 13.644531 13.359375 L 13.644531 8.8125 C 13.644531 8.5625 13.847656 8.359375 14.097656 8.359375 L 15.007812 8.359375 C 15.257812 8.359375 15.464844 8.5625 15.464844 8.8125 Z M 15.464844 8.8125 "/>
<path style=" stroke:none;fill-rule:nonzero;fill:rgb(87.843138%,87.843138%,87.843138%);fill-opacity:1;" d="M 2.730469 10.632812 L 5.003906 10.632812 L 5.003906 11.542969 L 2.730469 11.542969 Z M 2.730469 10.632812 "/>
<path style=" stroke:none;fill-rule:nonzero;fill:rgb(87.843138%,87.843138%,87.843138%);fill-opacity:1;" d="M 16.828125 10.632812 L 19.101562 10.632812 L 19.101562 11.542969 L 16.828125 11.542969 Z M 16.828125 10.632812 "/>
<path style=" stroke:none;fill-rule:nonzero;fill:rgb(87.843138%,87.843138%,87.843138%);fill-opacity:1;" d="M 9.550781 10.632812 L 12.28125 10.632812 L 12.28125 11.542969 L 9.550781 11.542969 Z M 9.550781 10.632812 "/>
<path style=" stroke:none;fill-rule:nonzero;fill:rgb(87.843138%,87.843138%,87.843138%);fill-opacity:1;" d="M 9.550781 9.269531 L 5.003906 9.269531 L 7.277344 5.628906 Z M 9.550781 9.269531 "/>
<path style=" stroke:none;fill-rule:nonzero;fill:rgb(87.843138%,87.843138%,87.843138%);fill-opacity:1;" d="M 16.828125 9.269531 L 12.28125 9.269531 L 14.554688 5.628906 Z M 16.828125 9.269531 "/>
<path style=" stroke:none;fill-rule:nonzero;fill:rgb(87.843138%,87.843138%,87.843138%);fill-opacity:1;" d="M 3.636719 1.992188 C 2.628906 1.992188 1.820312 2.800781 1.820312 3.808594 L 1.820312 18.363281 C 1.820312 19.371094 2.628906 20.183594 3.636719 20.183594 L 18.191406 20.183594 C 19.199219 20.183594 20.011719 19.371094 20.011719 18.363281 L 20.011719 3.808594 C 20.011719 2.800781 19.199219 1.992188 18.191406 1.992188 Z M 4.546875 3.808594 L 17.28125 3.808594 C 17.785156 3.808594 18.191406 4.214844 18.191406 4.71875 L 18.191406 17.453125 C 18.191406 17.957031 17.785156 18.363281 17.28125 18.363281 L 4.546875 18.363281 C 4.042969 18.363281 3.636719 17.957031 3.636719 17.453125 L 3.636719 4.71875 C 3.636719 4.214844 4.042969 3.808594 4.546875 3.808594 Z M 4.546875 3.808594 "/>
</g>
</svg>
